X:1
T:Gabrielli Trombone Duet
T:Sonata
T:Domenico Gabrielli
%%score { 1 | 2 }
L:1/8
M:4/4
K:C
V:1 tenor nm="Piano" snm="Pno."
V:2 tenor 
V:1
 z8 | z8 | z8 | z8 |[Q:1/4=35]"^Grave" z2!f![Q:1/4=72] G2 C2 F2 | D2 E4 A2 | G4 F4 | EGFE D2 z2 | %8
 z GFE D2 z2 | z GFE DE D>D | C2 A2 G3 G | !fermata!E4 z4 || %12
[Q:1/4=144]"^Allegro"[Q:1/4=140] z4 z2!mf! G2 | z8 | z8 | CC/D/ EC z4 | z4 G2 z2 | %17
 z E/F/"_cresc." GA/G/ FF FG/F/ | EC/D/ EF/E/ DD DE/D/ | C2 z2 z G,G,G, | CE/F/ GF/E/ D2 z2 | %21
 z!f! E^FG FG F3/2E/4F/4 |[Q:1/4=50]"^Largo" !fermata!G4 z4 | z8 | z8 | %25
[Q:1/4=144]"^Allegro" z4!f! G4 | z4 G4 | GGGG G4 | z4 z!mf! EDE | DGGG GF/E/ D>D | C2 z2 z4 | z8 | %32
 z8 | z4 z EEE | ^FF FG/A/ GDDD | EE E^F/G/ F2 z G | ^FG G>F G2 z2 | z8 | z8 | z!f! GcG AGFE | %40
 D2 z E D2 z E | DE D>D E2 z2 | z8 | z8 | z4 z G/G/ GG | G3 G G2 z2 | A3 A D2 G2- | G2 E2 D2 E2 | %48
 D2 G2 G2 z2 | z EDE D2 z2 | DG G>G GE D>G | !fermata!E4 z4 ||[Q:1/4=35]"^Grave" z8 | !fermata!z8 | %54
 z8 | z8 | z8 | z8 | z8 | z8 | z8 | z8 | z8 | z8 | z8 | z8 || %66
[M:12/8][Q:1/4=144]"^Allegro"[Q:1/4=100] z!p! CD EDC G3 z z2 | z12 | z2 G GFG AAG FEF | G3 z z8 | %70
 z2 E E^FG F2 G G2 F | G3 z z8 | z2!mf! G GAG F3 z z2 | z2 E EFE D3 z z2 | z2 G G2 G GFE D2 G | %75
 E3 z2 z z6 | z12 | z2 G G>FE D3 z z2 ||[M:4/4]!f![Q:1/4=187]"^Presto"[Q:1/4=144] DDDD G2 z2 | %79
 z4 GGGG | G2 z G G2 z G | GA D>D EA D>D | !fermata!E4 z4 |] %83
V:2
 z8 | z8 | z8 | z8 | z8 | z2!f! G2 C2 F2 | D2 C4 D2 | G,EDC A,2 z2 | z EDC G,2 z2 | %9
 z EDC G,G, G,>G, | E,2 C2 D3 D | !fermata!C4 z4 || z8 | z4 z2!mf! G2 | z8 | z4 G2 z2 | %16
 CC/D/ EC z4 | z8 | z E/F/"_cresc." GA/G/ FF FG/F/ | EE/F/ GF/E/ D2 z2 | z4 z!f! G,G,G, | %21
 CCDE DD D>D | !fermata!D4 z4 | z8 | z8 | z8 |!f! G4 E4 | D2 z2 z!mf! EDE | DGGG G4- | GEDE DCDG | %30
 E2 z2 z4 | z8 | z4 z CCC | DD DE/F/ E2 z2 | z4 z G,G,G, | G,G, CD/E/ D2 z D/E/ | DD D>D D2 z2 | %37
 z8 | z4 z!f! DGD | E2 z2 z EDC | G,2 z G, G,2 z G, | G,G, G,>G, G,2 z2 | z8 | z8 | z4 z E/E/ EE | %45
 D3 D E2 z2 | F4 G2 E2 | D2 G4 G2 | G2 E2 D2 z2 | z CG,C G,2 z2 | GF/E/ D>D CA D>D | %51
 !fermata!C4 z4 || z8 | !fermata!z8 | z8 | z8 | z8 | z8 | z8 | z8 | z8 | z8 | z8 | z8 | z8 | z8 || %66
[M:12/8] z12 | z!p! CD EDC G3 z z2 | z2 E EDE FFE DCD | E3 z z8 | z2 C CDE D2 E D2 D | G3 z z8 | %72
 z6 z2!mf! F FGF | E3 z2 z z2 D DED | C2 E E2 E EDC G,2 D | C3 z2 z z6 | z12 | %77
 z2 E E>DC G,3 z z2 ||[M:4/4] z8 |!f! FFFF EEEE | D2 z E D2 z E | DE D>D CC C>B, | %82
 !fermata!C4 z4 |] %83

